X: 26
T: Bessey Bell
%R: jig
B: Daniel Wright "Wright's Compleat Collection of Celebrated Country Dances" 1740 p.13
S: http://library.efdss.org/cgi-bin/dancebooks.cgi
Z: 2014 John Chambers <jc:trillian.mit.edu>
M: 6/8
L: 1/8
K: D
% - - - - - - - - - - - - - - - - - - - - - - - - -
A |\
F>GA ABc | B>AB G2G | FGA AFD | f3 g3 |\
aAA ABc | BAG g2f/g/ | agf edc | d3 f2 |]
f/g/ |\
afd faf | ece efg | afd faf | e3 g2f/g/ |\
afd faf | ece efg | agf edc | d3 f2 |]
% - - - - - - - - - - - - - - - - - - - - - - - - -
%%begintext align
%% Two 1st Cu. fall back and cross over and
%% so back again to the Places :| Cross
%% over and figure in .| lead thro' the
%% 3d Cu. cast up and turn Hands.
%%endtext
% - - - - - - - - - - - - - - - - - - - - - - - - -
%%sep 2 4 300
